X: 15705
T: Golden Keyboard, The
R: reel
M: 4/4
K: Edorian
F|~G2EF GFGA|B2gB fBed|BEEF GBAG|FDDF ADFA|
~G2EF GFGA|B2gB fBec|d2ce dBAF|FEED E3:|
e|e2 (3gfe be (3gfe|e^def e=dBc|dA~A2 eAce|dcAG FDEF|
~G2EF GFGA|B2gB fBec|d2ce dBAF|FEED E3:|

